X: 1
T: Maggie Lauder
T: 8x32S 2C (RSCDS Bk 10, Thomas Wilson 1816)
T: 1,2 set RHA; set LHA; DMU; R&L
P: Maggie Lauder
C: Scottish song, from Barbara McOwen/SRSNH
C: arr. T. Traub 2/23/98, rev 7/8/99, strathspey-ized on 8/22/16
L: 1/8
M: 4/4
R: Reel
K: G
D|"G"G>A!beambr1!G<B "Em"G>A!beambr1!G<B|"Am"A>B c/B/A/G/ "D7"F<AA>c|"G"B>GG>D "Em"G>AG>B|"C"d>e"D"d>c "G"B<d"G7"d>B ||
"C"c>d!beambr1!c<e|"G"B>c!beambr1!B<d|"Am"A>B "C"c/B/A/G/ "D"F<AA>F|"G"G>DE>B, "C"C<B,"D"A,>c| "G"B<d"D"A>B "G"G2 G |]
